X:1
T:Come away, come, sweet love
T:Come away, come, sweet love
T:John Dowland, 1562-1626 
C:John Dowland, 1562-1626
%%score [ ( 1 2 ) 3 4 5 ]
L:1/8
Q:1/4=100
M:8/4
K:F
V:1 treble nm="Cantus" snm="C"
V:2 treble 
V:3 treble nm="Altus" snm="A"
V:4 treble-8 nm="Tenor" snm="T"
V:5 bass nm="Bassus" snm="B"
V:1
|: d2 c2 c4 c2 B2 A4 | A2 B2 c2 d2- d2 ^c2 d4 :: d3 e f2 d2 c2 B2 A4 | %3
w: 1. Come a- way, come sweet love,|the gol- den mor- * ning breaks.|Teach thine arms then to em- brace,|
w: All the earth, all the air|of love and plea- * sure speaks.|Eyes were  made for beau- ty's grace,|
[M:6/4] G3 (A/B/ c2) (A3 B/c/ d2 | B2) c2 c2 d4 d2 | c3 (BAG) ^F4 G2 | B2 A4 G6 :: %7
w: and sweet _ _ ro- * * *|sy lips to kiss, and|mix our _ _ souls in|mu- tual bliss.|
w: vie- wing _ _ rue- * * *|ing love's long pain, pro-|cur'd by _ _ beau- ty's|rude dis- dain.|
[M:8/4] d2 c2 c4 c2 B2 A4 | A2 B2 c2 d2- d2 ^c2 d4 :: d3 e f2 d2 c2 B2 A4 | %10
w: 2. Come a- way, come sweet love,|the gol- den mor- * ning wastes,|Ma- king all the sha- dows fly,|
w: While the sun from his sphere|his fie- ry arr- * row casts,|Thit- ther,  sweet love, let us hie,|
[M:6/4] G3 (A/B/ c2) (A3 B/c/ d2 | B2) c2 c2 d4 d2 | c3 (BAG) ^F4 G2 | B2 A4 G6 :: %14
w: Play- ing, _ _ stay- * * *|ing in the grove to|en- ter- * * tain the|stealth of love.|
w: Fly- ing, _ _ dy- * * *|ing in de- sire wing'd|with sweet _ _ hopes and|heavn'- ly fire.|
[M:8/4] d2 c2 c4 c2 B2 A4 | A2 B2 c2 d4 ^c2 d4 ::"^(IIx)" d3 e f2 d2 c2 B2 A4 | %17
w: 3. Come a- way, come sweet love,|do not in vain a- dorn|Li- lies on the ri- ver's side|
w: Beaut- ty's grace, that should rise|like to the na- ked morn.|Or- na- ment is nurse of pride,|
[M:6/4] G3 (A/B/ c2) (A3 B/c/ d2 | B2) c2 c2 d4 d2 | c3 (BAG) ^F4 G2 | B2 A4 G6 :| %21
w: and fair _ _ Cy- * * *|prian flowr's new blown de-|sire no _ _ beau- ties|but their own,|
w: plea- sure, _ _ mea- * * *|sure love's de- light. Haste|then, sweet _ _ love, our|wish- ed flight.|
V:2
|: x16 | x16 :: x16 |[M:6/4] x12 | x12 | x12 | x12 ::[M:8/4] x16 | x16 :: x16 |[M:6/4] x12 | x12 | %12
 x12 | x12 ::[M:8/4] x16 | x16 :: dc d/c/d/e/ x12 |[M:6/4] x12 | x12 | x12 | x12 :| %21
V:3
|: G2 G2 A4 A2 G2 ^F4- | F2 G2 A2 A2 A3 G ^F4 :: B c d3 (c B2) A2 G2 ^F4 | %3
w: 1. Come a- way, come sweet love,|_ the gol- den mor- ning breaks.|Teach thine arms then _ to em- brace,|
w: All the earth, all the air|_ of love and plea- sure speaks.|Eyes were made for _ beau- ty's grace,|
[M:6/4] G4 G2 (F3 G/A/ (B2) | B)(A/G/) (A B2) A B4 F2 | F4 D2 D4 D2 | G4 ^F2 G6 :: %7
w: and sweet ro- * * *|* sy _ lips _ to kiss, and|mix our souls in|mu- tual bliss.|
w: vie- wing rue- * * *|* ing _ love's _ long pain, pro-|cur'd by beau- ty's|rude dis- dain.|
[M:8/4] G2 G2 A4 A2 G2 ^F4- | F2 G2 A2 A2 A3 G ^F4 :: B c d3 (c B2) A2 G2 ^F4 | %10
w: 2. Come a- way, come sweet love,|_ the gol- den mor- ning wastes,|Ma- king all the _ sha- dows fly,|
w: While the sun from his sphere|_ his fie- ry arr- row casts,|Thit- ther, sweet love, _ let us hie,|
[M:6/4] G4 G2 (F3 G/A/ (B2 | B))A/G/ (A B2) A B4 F2 | F4 D2 D4 D2 | G4 ^F2 G6 :: %14
w: Play- ing, stay- * * *|* ing _ in _ the grove to|en- ter- tain the|stealth of love.|
w: Fly- ing, dy- * * *|* ing _ in _ de- sire wing'd|with sweet hopes and|heavn'- ly fire.|
[M:8/4] G2 G2 A4 A2 G2 ^F4- | F2 G2 A2 A2 A3 G ^F4 :: B c d3 (c B2) A2 G2 ^F4 | %17
w: 3. Come a- way, come sweet love,|_ do not in vain a- dorn|Li- lies on the _ ri- ver's side|
w: Beaut- ty's grace, that should rise|_ like to the na- ked morn.|Or- na- ment is _ nurse of pride,|
[M:6/4] G4 G2 (F3 G/A/ (B2 | B))(A/G/) (A B2) A B4 F2 | F4 D2 D4 D2 | G4 ^F2 G6 :| %21
w: and fair Cy- * * *|* prian _ flowr's _ new  blown de-|sire no beau- ties|but their own,|
w: plea- sure, mea- * * *|* sure _ love's _ de- light. Haste|then, sweet love, our|wish- ed flight.|
V:4
|: =B2 c2 c4 f2 d2 d4 | d4 d2 f2 e3 e d4 :: f2 f2 B2 f2 f2 d2 d4 |[M:6/4] B3 (c/d/ _e2) c2 f4 | %4
w: 1. Come a- way, come, sweet, love,|the gol- den mor- ning  breaks.|Teach thine arms then to em- brace,|and sweet _ _ ro- sy|
w: All the earth, all the air|of love and plea- sure speaks.|Eyes were made for beau- ty's grace,|vie- wing _ _ rue- ing|
 d2 f4 f4 B2 | A3 (dcB) A4 (Bc) | d2 (d3 c) =B6 ::[M:8/4] =B2 c2 c4 f2 d2 d4 | d4 d2 f2 e3 e d4 :: %9
w: lips to kiss, and|mix our _ _ souls in _|mu- tual _ bliss.|2. Come a- way, come sweet love,|the gol- den mor- ning wastes,|
w: love's long pain, pro-|cur'd by _ _ beau- ty's _|rude dis- * dain.|While the sun from his sphere|his fie- ry arr- row casts,|
 f2 f2 B2 f2 f2 d2 d4 |[M:6/4] B3 (c/d/ _e2) c2 f4 | d2 f4 f4 B2 | (A3 d) (cB) A4 Bc | %13
w: Ma- king all the sha- dows fly,|Play- ing, _ _ stay- ing|in the grove to|en- ter- * * tain the _|
w: Thit- ther, sweet love, let us hie,|Fly- ing, _ _ dy- ing|in de- sire wing'd|with _ sweet _ hopes and _|
 d2 (d3 c) =B6 ::[M:8/4] =B2 c2 c4 f2 d2 d4 | d4 d2 f2 e3 e d4 :: f2 f2 B2 f2 f2 d2 d4 | %17
w: stealth of _ love.|3. Come a- way, come sweet love,|do not in vain a- dorn|Li- lies on the ri- ver's side|
w: heavn'- ly _ fire.|Beaut- ty's grace, that should rise|like to the na- ked  morn.|Or- na- ment is nurse of pride,|
[M:6/4] B3 (c/d/ _e2) c2 f4 | d2 f4 f4 B2 | A3 (dcB) A4 (Bc) | d2 (d3 c) =B6 :| %21
w: and fair _ _ Cy- prian|flowr's new blown de-|sire no _ _ beau- ties _|but their _ own,|
w: plea- sure, _ _ mea- sure|love's de- light. Haste|then, sweet _ _ love, our _|wish- ed _ flight.|
V:5
|: G,2 E,2 F,4 F,2 G,2 D,4 | D,2 (G,2 F,2) (E,D,) A,2 A,,2 D,4 :: B,,3 C, D,3 E, F,2 G,2 D,4 | %3
w: 1. Come a- way, come sweet love,|the gol- * den _ mor- ning breaks.|Teach thine arms then to em- brace,|
w: All the earth, all the air|of love _ and _ plea- sure speaks.|Eyes were made for beau- ty's grace,|
[M:6/4] (_E,3 D,) C,2 (F,3 E,) D,2 | G,2 F,4 B,,4 B,,2 | F,4 G,2 D,3 (C,B,,A,, | %6
w: and _ sweet ro- * sy|lips to kiss, and|mix our souls in _ _|
w: vie- * wing rue- * ing|love's long pain, pro-|cur'd by beau- ty's _ _|
 G,,2) D,2 D,2 G,,6 ::[M:8/4] G,2 E,2 F,4 F,2 G,2 D,4 | D,2 (G,2 F,2) (E,D,) A,2 A,,2 D,4 :: %9
w: _ mu- tual bliss.|2. Come a- way, come sweet love,|the gol- * den * mor- ning wastes,|
w: _ rude dis- dain.|While the sun from his sphere|his fie- * ry * arr- row casts,|
 B,,3 C, D,3 E, F,2 G,2 D,4 |[M:6/4] (_E,3 D,) C,2 (F,3 E,) D,2 | G,2 F,4 B,,4 B,,2 | %12
w: Ma- king all the sha- dows fly,|Play- * ing, stay- * ing|in the grove to|
w: Thit- ther, sweet love, let us hie,|Fly- * ing, dy- * ing|in de- sire wing'd|
 F,4 G,2 D,3 (C,B,,A,, | G,,2) D,2 D,2 G,,6 ::[M:8/4] G,2 E,2 F,4 F,2 G,2 D,4 | %15
w: en- ter- tain the _ _|_ stealth of love.|3. Come a- way, come sweet love,|
w: with sweet hopes and _ _|_ heavn'- ly fire.|Beaut- ty's grace, that should rise|
 D,2 (G,2 F,2) (E,D,) A,2 A,,2 D,4 :: B,,3 C, D,3 E, F,2 G,2 D,4 | %17
w: do not _ in _ vain a- dorn|Li- lies on the ri- ver's side|
w: like to _ the _ na- ked morn.|Or- na- ment is nurse of pride,|
[M:6/4] (_E,3 D,) C,2 (F,3 E,) D,2 | G,2 F,4 B,,4 B,,2 | F,4 G,2 D,3 (C,B,,A,, | %20
w: and _ fair Cy- * prian|flowr's new blown de-|sire no beau- ties _ _|
w: plea- * sure, mea- * sure|love's de- light. Haste|then, sweet love, our _ _|
 G,,2) D,2 D,2 G,,6 :| %21
w: _ but their own,|
w: _ wish- ed flight.|

